X:1
T:Title
%%score 1 2
L:1/8
Q:1/4=90
M:6/8
K:Ab
V:1 treble nm="Strings 1, SOPRANO ALTO"
V:2 bass nm="Strings 1, TENOR BASS"
V:1
 z3 z2 [CA] | [CA][B,G][CA] [DB][DA][DF] | [CE]3 [CA]2 [CE] | [DF][EG][EA] [EB][Ge][Gd] | %4
w: 1.~Oh,~|put~ on~ thy~ beau ti ful~|gar ments,~ Fair~|Zi on,~ thou~ home~ of~ the~|
 [Ac]3- [Ac]2 [Ac] | [Ac][Ac][Ac] [A=d][Ad][Ad] | [Ge]3 [EG]2 [EA] | [EB][Ec][EB] [=DF][DB][B,D] | %8
w: blest;~ * Ere~|long~ we~ shall~ see~ thee~ trans|port ed~ To~|yon der~ fair~ hav en~ of~|
 [CE]3- [CE]2 [DE] | [CA][Ec][DB] [CA][Ec][Af] | [Ae]3 [Ac]2 E | [EG][EB][Ed] [EB][Ge][Gd] | %12
w: rest.~ * The~|day~ of~ this~ world~ is~ de|clin ing,~ The~|forc es~ of~ sin~ are~ com|
 [Ac]3 [EA]2 [CA] | [CA][DB][Ec] [Ec][Ed][_Ge] | [Fd]3 [FA]2 [FB] | [Ec][EB][EA] [EG][EA][EB] | %16
w: bin ing,~ The~|faith ful~ our~ Lord~ is~ re|fin ing,~ And~|soon~ shall~ the~ Bride groom~ ap|
 [EA]6 |] %17
w: pear.~|
V:2
 z3 z2 [A,,E,] | [A,,E,][A,,E,][A,,E,] [D,F,][D,F,][D,A,] | [A,,A,]3 [A,,E,]2 [A,,A,] | %3
 [D,A,][B,,B,][C,A,] [E,G,][E,B,][E,E] | [A,E]3- [A,E]2 [A,E] | %5
 [A,E][A,E][A,E] [F,B,][F,B,][F,B,] | [E,B,]3 [E,B,]2 [C,A,] | %7
 [B,,G,][B,,G,][B,,G,] [B,,A,][B,,A,][B,,A,] | [E,G,]3- [E,G,]2 [G,B,] | A,A,A, A,A,[A,D] | %10
 [A,C]3 [A,E]2 [E,G,] | [E,B,][E,G,][E,G,] [E,G,][E,B,][E,E] | [A,E]3 [A,C]2 A, | %13
 A,A,A, [A,,A,][B,,G,][C,A,] | [D,A,]3 [D,D]2 [D,A,] | [E,A,][E,B,][E,C] [E,B,][E,C][E,D] | %16
 [A,,C]6 |] %17

